X:2636
T:Hop Ground     %Tune name
Q:1/4=120     %Tempo
|:
O:England
M:6/8     %Meter
L:1/8     %
K:D
"D"Add fed | "G"gfe "D"fed | "D"Add "Bm"fed | "Em"gee "A"cdB | "D"Add fed |
"G"gfe "D"fed | "D"fga "Em"gfe | "Bm"fdd "A"cdB :: "D"AFA "G"Bcd | "D"Add "G"Bdd |
"D"AFA "Bm"Bcd | "Em"efg "A"fed | "D"AFA "G"Bcd | "D"Add "G"Bdd | "D"fga "Em"gfe |
"Bm"fdd "A"cdB :|


